X: 342
T: Tibby Fowler o' the Glen
R: strathspey
Q: "Slow"
M: C
L: 1/8
Z: 2012 John Chambers <jc:trillian.mit.edu>
B: J. Anderson "Budget of Strathspeys, Reels and Country Dances" (Early 1800s) p.34 #2
F: http://imslp.org/wiki/Anderson%27s_Budget_of_Strathspeys,_Reels_and_Country_Dances_(Various)
K: Am
E | A/A/A .A.A (AG).G.B | (BA).A.B (GE).E.G | A/A/A (A>B) GABd | eA.A.B GEE :|
a | (ge)e>g d>edB | (ge)e>g a>geB | d>egb e>dBG | (BA)A>B GEE> ||
a | geeg d>e (e/d/)(c/B/) | (ge)e>g abeB | d>eg>d e>dB>G | A/A/A A/A/A GEE |]

%%sep 2 1 500
%%sep 1 1 500

